content/blogs/regnskap/hva-er-csrd/csrd-revisjon-prosess.svg

<svg xmlns="http://www.w3.org/2000/svg" width="900" height="600" viewBox="0 0 900 600"><path fill="#f8f9fa" d="M0 0h900v600H0z"/><text x="450" y="40" fill="#2c5aa0" font-family="Arial, sans-serif" font-size="24" font-weight="bold" text-anchor="middle">CSRD Revisjon og Sikringsprosess</text><rect width="300" height="200" x="50" y="80" fill="#007bff" opacity=".1" rx="10"/><rect width="260" height="40" x="70" y="100" fill="#007bff" rx="5"/><text x="200" y="125" fill="#fff" font-family="Arial, sans-serif" font-size="16" font-weight="bold" text-anchor="middle">Bedrift</text><rect width="240" height="30" x="80" y="160" fill="#fff" stroke="#007bff" rx="3"/><text x="200" y="180" fill="#333" font-family="Arial, sans-serif" font-size="12" text-anchor="middle">Utarbeider bærekraftsrapport</text><rect width="240" height="30" x="80" y="200" fill="#fff" stroke="#007bff" rx="3"/><text x="200" y="220" fill="#333" font-family="Arial, sans-serif" font-size="12" text-anchor="middle">Følger ESRS-standarder</text><rect width="240" height="30" x="80" y="240" fill="#fff" stroke="#007bff" rx="3"/><text x="200" y="260" fill="#333" font-family="Arial, sans-serif" font-size="12" text-anchor="middle">Interne kontroller og kvalitetssikring</text><path fill="none" stroke="#2c5aa0" stroke-width="3" d="M350 180h50m-10-10 10 10-10 10"/><text x="375" y="170" fill="#2c5aa0" font-family="Arial, sans-serif" font-size="11" text-anchor="middle">Leverer til</text><rect width="300" height="200" x="420" y="80" fill="#28a745" opacity=".1" rx="10"/><rect width="260" height="40" x="440" y="100" fill="#28a745" rx="5"/><text x="570" y="125" fill="#fff" font-family="Arial, sans-serif" font-size="16" font-weight="bold" text-anchor="middle">Revisor/Sikrer</text><rect width="240" height="30" x="450" y="160" fill="#fff" stroke="#28a745" rx="3"/><text x="570" y="180" fill="#333" font-family="Arial, sans-serif" font-size="12" text-anchor="middle">Planlegger revisjonsarbeid</text><rect width="240" height="30" x="450" y="200" fill="#fff" stroke="#28a745" rx="3"/><text x="570" y="220" fill="#333" font-family="Arial, sans-serif" font-size="12" text-anchor="middle">Gjennomfører sikringshandlinger</text><rect width="240" height="30" x="450" y="240" fill="#fff" stroke="#28a745" rx="3"/><text x="570" y="260" fill="#333" font-family="Arial, sans-serif" font-size="12" text-anchor="middle">Utarbeider sikringsrapport</text><rect width="700" height="120" x="100" y="320" fill="#ffc107" opacity=".1" rx="10"/><text x="450" y="350" fill="#856404" font-family="Arial, sans-serif" font-size="18" font-weight="bold" text-anchor="middle">Sikringsnivåer</text><rect width="250" height="50" x="150" y="370" fill="#ffc107" opacity=".3" rx="5"/><text x="275" y="390" fill="#856404" font-family="Arial, sans-serif" font-size="14" font-weight="bold" text-anchor="middle">Begrenset sikring</text><text x="275" y="405" fill="#333" font-family="Arial, sans-serif" font-size="11" text-anchor="middle">2025-2028 (første fase)</text><text x="275" y="415" fill="#333" font-family="Arial, sans-serif" font-size="10" text-anchor="middle">Lavere sikringsnivå</text><rect width="250" height="50" x="500" y="370" fill="#dc3545" opacity=".3" rx="5"/><text x="625" y="390" fill="#721c24" font-family="Arial, sans-serif" font-size="14" font-weight="bold" text-anchor="middle">Rimelig sikring</text><text x="625" y="405" fill="#333" font-family="Arial, sans-serif" font-size="11" text-anchor="middle">Fra 2029 (planlagt)</text><text x="625" y="415" fill="#333" font-family="Arial, sans-serif" font-size="10" text-anchor="middle">Høyere sikringsnivå</text><rect width="800" height="110" x="50" y="470" fill="#fff" stroke="#dee2e6" stroke-width="2" rx="10"/><text x="450" y="495" fill="#2c5aa0" font-family="Arial, sans-serif" font-size="16" font-weight="bold" text-anchor="middle">Sikringsprosess - Hovedsteg</text><circle cx="120" cy="530" r="15" fill="#007bff"/><text x="120" y="535" fill="#fff" font-family="Arial, sans-serif" font-size="12" font-weight="bold" text-anchor="middle">1</text><text x="120" y="555" fill="#333" font-family="Arial, sans-serif" font-size="10" text-anchor="middle">Planlegging og</text><text x="120" y="565" fill="#333" font-family="Arial, sans-serif" font-size="10" text-anchor="middle">risikovurdering</text><circle cx="280" cy="530" r="15" fill="#007bff"/><text x="280" y="535" fill="#fff" font-family="Arial, sans-serif" font-size="12" font-weight="bold" text-anchor="middle">2</text><text x="280" y="555" fill="#333" font-family="Arial, sans-serif" font-size="10" text-anchor="middle">Testing av</text><text x="280" y="565" fill="#333" font-family="Arial, sans-serif" font-size="10" text-anchor="middle">kontroller</text><circle cx="440" cy="530" r="15" fill="#007bff"/><text x="440" y="535" fill="#fff" font-family="Arial, sans-serif" font-size="12" font-weight="bold" text-anchor="middle">3</text><text x="440" y="555" fill="#333" font-family="Arial, sans-serif" font-size="10" text-anchor="middle">Substansielle</text><text x="440" y="565" fill="#333" font-family="Arial, sans-serif" font-size="10" text-anchor="middle">handlinger</text><circle cx="600" cy="530" r="15" fill="#007bff"/><text x="600" y="535" fill="#fff" font-family="Arial, sans-serif" font-size="12" font-weight="bold" text-anchor="middle">4</text><text x="600" y="555" fill="#333" font-family="Arial, sans-serif" font-size="10" text-anchor="middle">Evaluering og</text><text x="600" y="565" fill="#333" font-family="Arial, sans-serif" font-size="10" text-anchor="middle">konklusjon</text><circle cx="760" cy="530" r="15" fill="#007bff"/><text x="760" y="535" fill="#fff" font-family="Arial, sans-serif" font-size="12" font-weight="bold" text-anchor="middle">5</text><text x="760" y="555" fill="#333" font-family="Arial, sans-serif" font-size="10" text-anchor="middle">Rapportering</text><text x="760" y="565" fill="#333" font-family="Arial, sans-serif" font-size="10" text-anchor="middle">og kommunikasjon</text><path fill="none" stroke="#6c757d" stroke-width="2" d="M135 530h130m-10-5 10 5-10 5M295 530h130m-10-5 10 5-10 5M455 530h130m-10-5 10 5-10 5M615 530h130m-10-5 10 5-10 5"/><path fill="none" stroke="#28a745" stroke-width="2" marker-end="url(#a)" d="M570 280q-120 20-370 0"/><text x="385" y="295" fill="#28a745" font-family="Arial, sans-serif" font-size="11" text-anchor="middle">Sikringsrapport</text><defs><marker id="a" markerHeight="7" markerWidth="10" orient="auto" refX="9" refY="3.5"><path fill="#28a745" d="m0 0 10 3.5L0 7z"/></marker></defs></svg>

<svg width="900" height="600" viewBox="0 0 900 600" xmlns="http://www.w3.org/2000/svg">

  <rect width="900" height="600" fill="#f8f9fa"/>
  

  <text x="450" y="40" text-anchor="middle" fill="#2c5aa0" font-family="Arial, sans-serif" font-size="24" font-weight="bold">CSRD Revisjon og Sikringsprosess</text>
  

  <rect x="50" y="80" width="300" height="200" fill="#007bff" opacity="0.1" rx="10"/>
  <rect x="70" y="100" width="260" height="40" fill="#007bff" rx="5"/>
  <text x="200" y="125" text-anchor="middle" fill="white" font-family="Arial, sans-serif" font-size="16" font-weight="bold">Bedrift</text>
  
  <rect x="80" y="160" width="240" height="30" fill="white" stroke="#007bff" stroke-width="1" rx="3"/>
  <text x="200" y="180" text-anchor="middle" fill="#333" font-family="Arial, sans-serif" font-size="12">Utarbeider bærekraftsrapport</text>
  
  <rect x="80" y="200" width="240" height="30" fill="white" stroke="#007bff" stroke-width="1" rx="3"/>
  <text x="200" y="220" text-anchor="middle" fill="#333" font-family="Arial, sans-serif" font-size="12">Følger ESRS-standarder</text>
  
  <rect x="80" y="240" width="240" height="30" fill="white" stroke="#007bff" stroke-width="1" rx="3"/>
  <text x="200" y="260" text-anchor="middle" fill="#333" font-family="Arial, sans-serif" font-size="12">Interne kontroller og kvalitetssikring</text>
  

  <path d="M 350 180 L 400 180 M 390 170 L 400 180 L 390 190" stroke="#2c5aa0" stroke-width="3" fill="none"/>
  <text x="375" y="170" text-anchor="middle" fill="#2c5aa0" font-family="Arial, sans-serif" font-size="11">Leverer til</text>
  

  <rect x="420" y="80" width="300" height="200" fill="#28a745" opacity="0.1" rx="10"/>
  <rect x="440" y="100" width="260" height="40" fill="#28a745" rx="5"/>
  <text x="570" y="125" text-anchor="middle" fill="white" font-family="Arial, sans-serif" font-size="16" font-weight="bold">Revisor/Sikrer</text>
  
  <rect x="450" y="160" width="240" height="30" fill="white" stroke="#28a745" stroke-width="1" rx="3"/>
  <text x="570" y="180" text-anchor="middle" fill="#333" font-family="Arial, sans-serif" font-size="12">Planlegger revisjonsarbeid</text>
  
  <rect x="450" y="200" width="240" height="30" fill="white" stroke="#28a745" stroke-width="1" rx="3"/>
  <text x="570" y="220" text-anchor="middle" fill="#333" font-family="Arial, sans-serif" font-size="12">Gjennomfører sikringshandlinger</text>
  
  <rect x="450" y="240" width="240" height="30" fill="white" stroke="#28a745" stroke-width="1" rx="3"/>
  <text x="570" y="260" text-anchor="middle" fill="#333" font-family="Arial, sans-serif" font-size="12">Utarbeider sikringsrapport</text>
  

  <rect x="100" y="320" width="700" height="120" fill="#ffc107" opacity="0.1" rx="10"/>
  <text x="450" y="350" text-anchor="middle" fill="#856404" font-family="Arial, sans-serif" font-size="18" font-weight="bold">Sikringsnivåer</text>
  
  <rect x="150" y="370" width="250" height="50" fill="#ffc107" opacity="0.3" rx="5"/>
  <text x="275" y="390" text-anchor="middle" fill="#856404" font-family="Arial, sans-serif" font-size="14" font-weight="bold">Begrenset sikring</text>
  <text x="275" y="405" text-anchor="middle" fill="#333" font-family="Arial, sans-serif" font-size="11">2025-2028 (første fase)</text>
  <text x="275" y="415" text-anchor="middle" fill="#333" font-family="Arial, sans-serif" font-size="10">Lavere sikringsnivå</text>
  
  <rect x="500" y="370" width="250" height="50" fill="#dc3545" opacity="0.3" rx="5"/>
  <text x="625" y="390" text-anchor="middle" fill="#721c24" font-family="Arial, sans-serif" font-size="14" font-weight="bold">Rimelig sikring</text>
  <text x="625" y="405" text-anchor="middle" fill="#333" font-family="Arial, sans-serif" font-size="11">Fra 2029 (planlagt)</text>
  <text x="625" y="415" text-anchor="middle" fill="#333" font-family="Arial, sans-serif" font-size="10">Høyere sikringsnivå</text>
  

  <rect x="50" y="470" width="800" height="110" fill="white" stroke="#dee2e6" stroke-width="2" rx="10"/>
  <text x="450" y="495" text-anchor="middle" fill="#2c5aa0" font-family="Arial, sans-serif" font-size="16" font-weight="bold">Sikringsprosess - Hovedsteg</text>
  

  <circle cx="120" cy="530" r="15" fill="#007bff"/>
  <text x="120" y="535" text-anchor="middle" fill="white" font-family="Arial, sans-serif" font-size="12" font-weight="bold">1</text>
  <text x="120" y="555" text-anchor="middle" fill="#333" font-family="Arial, sans-serif" font-size="10">Planlegging og</text>
  <text x="120" y="565" text-anchor="middle" fill="#333" font-family="Arial, sans-serif" font-size="10">risikovurdering</text>
  

  <circle cx="280" cy="530" r="15" fill="#007bff"/>
  <text x="280" y="535" text-anchor="middle" fill="white" font-family="Arial, sans-serif" font-size="12" font-weight="bold">2</text>
  <text x="280" y="555" text-anchor="middle" fill="#333" font-family="Arial, sans-serif" font-size="10">Testing av</text>
  <text x="280" y="565" text-anchor="middle" fill="#333" font-family="Arial, sans-serif" font-size="10">kontroller</text>
  

  <circle cx="440" cy="530" r="15" fill="#007bff"/>
  <text x="440" y="535" text-anchor="middle" fill="white" font-family="Arial, sans-serif" font-size="12" font-weight="bold">3</text>
  <text x="440" y="555" text-anchor="middle" fill="#333" font-family="Arial, sans-serif" font-size="10">Substansielle</text>
  <text x="440" y="565" text-anchor="middle" fill="#333" font-family="Arial, sans-serif" font-size="10">handlinger</text>
  

  <circle cx="600" cy="530" r="15" fill="#007bff"/>
  <text x="600" y="535" text-anchor="middle" fill="white" font-family="Arial, sans-serif" font-size="12" font-weight="bold">4</text>
  <text x="600" y="555" text-anchor="middle" fill="#333" font-family="Arial, sans-serif" font-size="10">Evaluering og</text>
  <text x="600" y="565" text-anchor="middle" fill="#333" font-family="Arial, sans-serif" font-size="10">konklusjon</text>
  

  <circle cx="760" cy="530" r="15" fill="#007bff"/>
  <text x="760" y="535" text-anchor="middle" fill="white" font-family="Arial, sans-serif" font-size="12" font-weight="bold">5</text>
  <text x="760" y="555" text-anchor="middle" fill="#333" font-family="Arial, sans-serif" font-size="10">Rapportering</text>
  <text x="760" y="565" text-anchor="middle" fill="#333" font-family="Arial, sans-serif" font-size="10">og kommunikasjon</text>
  

  <path d="M 135 530 L 265 530 M 255 525 L 265 530 L 255 535" stroke="#6c757d" stroke-width="2" fill="none"/>
  <path d="M 295 530 L 425 530 M 415 525 L 425 530 L 415 535" stroke="#6c757d" stroke-width="2" fill="none"/>
  <path d="M 455 530 L 585 530 M 575 525 L 585 530 L 575 535" stroke="#6c757d" stroke-width="2" fill="none"/>
  <path d="M 615 530 L 745 530 M 735 525 L 745 530 L 735 535" stroke="#6c757d" stroke-width="2" fill="none"/>
  

  <path d="M 570 280 Q 450 300 200 280" stroke="#28a745" stroke-width="2" fill="none" marker-end="url(#arrowhead2)"/>
  <text x="385" y="295" text-anchor="middle" fill="#28a745" font-family="Arial, sans-serif" font-size="11">Sikringsrapport</text>
  

  <defs>
    <marker id="arrowhead2" markerWidth="10" markerHeight="7" refX="9" refY="3.5" orient="auto">
      <polygon points="0 0, 10 3.5, 0 7" fill="#28a745"/>
    </marker>
  </defs>
</svg>
